assets/svgs/ic_calendar_blank.svg

<svg fill="none" height="32" viewBox="0 0 32 32" width="32" xmlns="http://www.w3.org/2000/svg"><g stroke="#8f9098" stroke-linecap="round" stroke-linejoin="round" stroke-width="1.5"><path d="m26 5h-20c-.55228 0-1 .44772-1 1v20c0 .5523.44772 1 1 1h20c.5523 0 1-.4477 1-1v-20c0-.55228-.4477-1-1-1z"/><path d="m22 3v4"/><path d="m10 3v4"/><path d="m5 11h22"/></g></svg>

<svg width="32" height="32" viewBox="0 0 32 32" fill="none" xmlns="http://www.w3.org/2000/svg">
<path d="M26 5H6C5.44772 5 5 5.44772 5 6V26C5 26.5523 5.44772 27 6 27H26C26.5523 27 27 26.5523 27 26V6C27 5.44772 26.5523 5 26 5Z" stroke="#8F9098" stroke-width="1.5" stroke-linecap="round" stroke-linejoin="round"/>
<path d="M22 3V7" stroke="#8F9098" stroke-width="1.5" stroke-linecap="round" stroke-linejoin="round"/>
<path d="M10 3V7" stroke="#8F9098" stroke-width="1.5" stroke-linecap="round" stroke-linejoin="round"/>
<path d="M5 11H27" stroke="#8F9098" stroke-width="1.5" stroke-linecap="round" stroke-linejoin="round"/>
</svg>
